X: 4253
T: Boa Constrictor, The
R: polka
M: 2/4
K: Amajor
|:a>g ae|fa fe|c>d c/B/A/B/|ce B2|
a>g ae|fa fe|c>d c/B/A/B/|cA A2:|
K: Amin
|:Aa Ag|Af e2|B>A GA|B/c/d BG|
Aa Ag|Af e2|B>A GA|BA A2:|

